X:1
T:For Children- Book 2 (after Slovakian Folksongs)
T:39. The Highwayman
T:Book 2 (after Slovakian Folksongs)
T:39. The Highwayman
T:For Children Nr 39, Sz 42 
T:Béla Bartók Revised and Arranged by the Composer, January 1945 
T:Oli 2020
T:Oli 2020
C:Bartók, Béla
Z:Oli 2020
%%score { ( 1 4 ) | ( 2 3 ) }
L:1/8
Q:1/4=65
M:2/4
K:C
V:1 bass nm="Piano"
V:4 bass 
V:2 bass 
V:3 bass 
V:1
"^Poco largo"!f! !tenuto!!1+2!D,!tenuto!!1+2!D,!tenuto!!1+2!D,!tenuto!!1+2!D, | %1
 !tenuto!!1+2!D,!tenuto!!1+2!E, !tenuto!!1+2!C,2 | %2
"^sempre simile" !^!!tenuto!C2 !tenuto!_B,!tenuto!A, | !tenuto!G,2 !tenuto!C2 | %4
 !>!!tenuto!_B,!tenuto!A, !tenuto!G,2 | !tenuto!D,!tenuto!D,!tenuto!D,!tenuto!D, | %6
 !tenuto!D,!tenuto!E, !tenuto!C,2 | %7
"^poco rit."[Q:1/4=55]"^T"!<(! !tenuto!F,!tenuto!G,!tenuto!A,!tenuto!_B, | %8
 !tenuto!A,2 !tenuto!G,2!<)! | !fermata!D,4 | %10
[Q:1/4=75]"^Meno largo" z !2!!3!!5![F,G,_B,]2 [F,G,B,]- |[F,G,B,] [F,G,-_B,]2 !1!!3!!5![E,G,B,] | %12
 z [F,G,_B,]2 [F,G,B,]- |[F,G,B,] [F,G,_B,]2 [F,G,B,]- |[F,G,B,] [F,G,_B,]2 [F,G,B,]- | %15
[F,G,B,] [F,G,_B,]2 [F,G,B,]- |[F,G,B,] [F,G,-_B,]2 [E,G,B,] | z [F,G,_B,]2 [F,G,B,]- | %18
 [F,G,B,] [F,G,_B,]2 [F,G,B,]- |[F,G,B,] !1!!2!!4![F,G,_B,]2 ((!1!!2!!5![F,G,C] | %20
[I:staff +1][F,G,C]))"_rit."[Q:1/4=65]"^T"[I:staff -1] x3 | z4 | %22
[K:treble][Q:1/4=130]"^Allegro" !4!D!f!!3!D!2!D!1!D | !2!DE !tenuto!C2 | !tenuto!!5!c2 _BA | %25
 !tenuto!G2 !tenuto!c2 | !>!_BA !tenuto!G2 | DDDD | !2!DE !tenuto!C2 | !2!FGA_B | %30
 !tenuto!A2 !tenuto!G2 | D4- |!>(! D4!>)! | z4 | z4 | !tenuto!d!f!!tenuto!d!tenuto!d!tenuto!d | %36
!<(! (de) c2!<)! | (c'2 _ba | !tenuto!g2) (c'2 | !>!_ba !tenuto!g2) |!>(! dddd | (de)!>)! c2 | %42
!mf!"^tranquillo"[Q:1/4=110]"^T"!<(! (fga_b) | (!^!c'2!<)!!>(! g2 | d4)!>)! |"_dim." (!>!A2 G2 | %46
!>(! [B,D]4-!>)! | [B,D]2) z2 | z4 |"^sempre più tranquillo"[Q:1/4=110]"^T"!>(! (.d.d.d.d) | %50
 (de) c2 |[Q:1/4=90]"^T" (c'2!>)! _b!p!a |!>(! !tenuto!.g2) (c'2 | _ba g2) | .d.d.d.d | %55
 (de) c2!>)! |!<(! fga_b!<)! |!mp!!>(! (!>!a2 g2 | d4)!>)! | %59
!mf![Q:1/4=100]"^Sostenuto"!<(! (!5!A2 !4-5!G2 |[K:bass] !^!!3!D4-)!<)! |"_dim." D4- | !5!D4- | %63
!pp! !3!D4- | D4- | D4 | z2 !>!D,2- | D,4- | D,4- | D,4 |] %70
V:2
 !tenuto!!1+2!D,,!tenuto!!1+2!D,,!tenuto!!1+2!D,,!tenuto!!1+2!D,, | %1
 !tenuto!!1+2!D,,!tenuto!!1+2!E,, !tenuto!!1+2!C,,2 | %2
"_sempre simile" !^!!tenuto!C,2 !tenuto!_B,,!tenuto!A,, | !tenuto!G,,2 !tenuto!C,2 | %4
 !>!!tenuto!_B,,!tenuto!A,, !tenuto!G,,2 | !tenuto!D,,!tenuto!D,,!tenuto!D,,!tenuto!D,, | %6
 !tenuto!D,,!tenuto!E,, !tenuto!C,,2 | !tenuto!F,,!tenuto!G,,!tenuto!A,,!tenuto!_B,, | %8
 !tenuto!A,,2 !tenuto!G,,2 | !fermata!D,,4 | %10
!f! !tenuto!!4!D,,!tenuto!!3!D,,!tenuto!!2!D,,!tenuto!!1!D,, | %11
 !tenuto!!3!D,,!tenuto!!2!E,, !tenuto!!4!C,,2 | !^!!tenuto!!1!C,2 !tenuto!_B,,!tenuto!A,, | %13
 !tenuto!G,,2 !tenuto!C,2 | !>!!tenuto!_B,,!tenuto!A,, !tenuto!G,,2 | %15
 !tenuto!!4!D,,!tenuto!!3!D,,!tenuto!!2!D,,!tenuto!!1!D,, | %16
 !tenuto!!3!D,,!tenuto!!2!E,, !tenuto!!5!C,,2 | %17
 !tenuto!!3!F,,!tenuto!G,,!tenuto!A,,!tenuto!!2!_B,, | !tenuto!A,,2 !tenuto!G,,2 |!ped! D,,4 | %20
 x !4!!3!!2![F,G,_B,]2"^cresc." [F,G,C]- |[F,G,C] (!4!!3!!2![F,G,_B,]2!ped-up! C) | %22
 z2 (!3!!2![G,_B,]F, | [G,_B,]F,[G,B,]F, | [G,_B,]F,)([G,C]F, | [G,C]F,[G,C]F, | %26
 [G,C]F,)([G,_B,]F, | [G,_B,]F,[G,B,]F,) | (!3!!2![G,_B,]!5!E,[G,B,]E, | [G,_B,]E,[G,B,]E,) | %30
 (!3!!1![G,C]D,[G,C]D, | [G,C]D,[G,C]D, | [G,C]D,!3!!2![G,B,]D,) | ([G,C]D,[G,B,]D,) | %34
 ([G,C]D,[G,B,]D,) |[K:treble] z2 (!5!!2![_B,F]G | [_B,F]G!5!!2![A,E]G | [A,E]G[A,E]G) | %38
 ([A,_E]G[A,E]G | [A,_E]G[A,E]G) |[K:bass] (!4!!2![E,^G,]C[E,G,]C | %41
 !5!!3![E,^G,]!1!B,!5![A,,E,]A,) |"^espr." z4 |[K:treble] !^!!3!!4!!2!!1![B,DFG]4- | ([B,-D-F-G]4 | %45
 [B,DF]4) |[K:bass]"_espr."!>(! (!>!!1!A,2 G,2 | !4!D,2!>)! C,2) | z2!p! [B,D]2- |!>(! [B,D]4!>)! | %50
 z4 | z4 | [E,G,]4 | z4 | z2 [E,G,]2- | [E,G,]4 | z4 | [D,F,]4- | [B,,D,F,]4 | z4 | %60
!ped! !^![E,,B,,]4- | [E,,B,,]4 | z4 | G,,,4- | G,,,4 | A,,,4 | [D,,A,,]4- | [D,,A,,]4- | %68
 [D,,A,,]4- | [D,,A,,]4!ped-up! |] %70
V:3
 x4 | x4 | x4 | x4 | x4 | x4 | x4 | x4 | x4 | x4 | x4 | x4 | x4 | x4 | x4 | x4 | x4 | x4 | x4 | %19
 x4 | x4 | x4 | x4 | x4 | x4 | x4 | x4 | x4 | x4 | x4 | x4 | x4 | x4 | x4 | x4 |[K:treble] x4 | %36
 x4 | x4 | x4 | x4 |[K:bass] x4 | x4 | x4 |[K:treble] x4 | x4 | x4 |[K:bass] x4 | x4 | %48
 x2 (!>!!1
2
3
!A,2- | A,2 G,2 | D,2) z2 | x4 | (!>!!1
2
3
!D,2 C,2 | G,,2) z2 | x2 (!>!D,2 | %55
 C,2 G,,2) | x4 | (!>!C,2 _B,,2- | F,,4) | x4 | x4 | x4 | x4 | x4 | x4 | x4 | x4 | x4 | x4 | x4 |] %70
V:4
 x4 | x4 | x4 | x4 | x4 | x4 | x4 | x4 | x4 | x4 | x4 | x4 | x4 | x4 | x4 | x4 | x4 | x4 | x4 | %19
 x4 | x4 | x4 |[K:treble] x4 | x4 | x4 | x4 | x4 | x4 | x4 | x4 | x4 | x4 | x4 | x4 | x4 | x4 | %36
 x4 | x4 | x4 | x4 | x4 | x4 | x4 | x4 | x4 | x4 | x4 | x4 | x4 | x4 | x4 | x4 | x4 | x4 | x4 | %55
 x4 | x4 | x4 | x4 | x4 |[K:bass] !1!^G,4- | G,4 | z4 | !1![F,A,]4- | [F,A,]4 | [_E,G,]4 | z4 | %67
 x4 | x4 | x4 |] %70

